!!!COM: Marotta, Erasmo
!!!CDT:
!!!PTL: Aminta musicale. Il primo libro de madrigali a cinque voci
!!!PPP: Venice
!!!PPR: Angelo Gardano
!!!PDT: 1600
!!!PUB-format:
!!!RISM: M 714
!!!OTL: Ma mentre al cor scendeva
!!!act: I
!!!scene: 2
!!!verse: 502
!!!AGN: 
!!!SCT: Tam1020502a
!!!SCA: Tam1020502a
!!!original-voices: 5
!!!extant-voices: 3
!!!complete: N
!!!final: C
**kern	**text	**kern	**text	**kern	**text
*part3	*part3	*part2	*part2	*part1	*part1
*staff3	*staff3	*staff2	*staff2	*staff1	*staff1
*I"Basso	*	*I"Quinto	*	*I"Canto	*
*I'B	*	*I'V	*	*I'C	*
*oclefC4	*	*oclefG2	*	*oclefG2	*
*clefGv2	*	*clefG2	*	*clefG2	*
*k[]	*	*k[]	*	*k[]	*
*omet(C)	*	*omet(C)	*	*omet(C)	*
*M4/2	*	*M4/2	*	*M4/2	*
=1	=1	=1	=1	=1	=1
!!LO:TX:a:t=[Ottava parte]
0r	.	0r	.	0r	.
=2	=2	=2	=2	=2	=2
1r	.	2cc	Ma	0r	.
.	.	4cc	men-	.	.
.	.	4cc	-tre al	.	.
2G	Ma	4b	cor	.	.
.	.	4g	scen-	.	.
4G	men-	2b	-de-	.	.
4G	-tre al	.	.	.	.
=3	=3	=3	=3	=3	=3
4F	cor	1a	.	1r	.
4E	scen-	.	.	.	.
2F	-de-	.	.	.	.
2C	-va,	2g	-va,	2cc	Ma
2c	<Ma	2g	al	4cc	men-
.	.	.	.	4cc	-tre al
=4	=4	=4	=4	=4	=4
4d	men-	4g	cor	4b	cor
4c	-tre al	4g	scen-	4g	scen-
4d	cor	8ggL	-de-	2b	-de-
.	.	8ff	.	.	.
4e	scen-	8ee	.	.	.
.	.	8ddJ	.	.	.
4.f	-de-	2cc	.	2a	-va,
16eL	.	.	.	.	.
16dJ	.	.	.	.	.
4.c	.	2cc	-va,	4r	.
.	.	.	.	4cc	<Ma
16BL	.	.	.	.	.
16AJ	.	.	.	.	.
=5	=5	=5	=5	=5	=5
1G	.	2r	.	4dd	men-
.	.	.	.	4cc	-tre al
.	.	2g	Ma	4dd	cor
.	.	.	.	4ee	scen-
1D	-va,>	4a	men-	2.ff	-de-
.	.	4g	-tre al	.	.
.	.	4a	cor	.	.
.	.	4b	scen-	8eeL	.
.	.	.	.	8ddJ	.
=6	=6	=6	=6	=6	=6
4r	.	2cc	-de-	2ee	-va>
4.c	Quel-	.	.	.	.
.	.	2g	-va	2r	.
8c	-la	.	.	.	.
4B	dol-	.	.	.	.
4c	-cez-	1r	.	1r	.
4B	-za	.	.	.	.
2A	mis-	.	.	.	.
=7	=7	=7	=7	=7	=7
2G	-ta	4r	.	4r	.
.	.	4.b	Quel-	4.dd	Quel-
2r	.	.	.	.	.
.	.	8b	-la	8dd	-la
.	.	4a	dol-	4dd	dol-
1r	.	4b	-cez-	4ee	-cez-
.	.	4a	-za	4dd	-za
.	.	2g	mis-	2cc#X	mi-
=8	=8	=8	=8	=8	=8
2r	.	1a	-ta	1dd	-sta
2d	D'un	.	.	.	.
4c#X	se-	1r	.	1r	.
4.d	-cre-	.	.	.	.
8d	-to	.	.	.	.
4c	ve-	.	.	.	.
=9	=9	=9	=9	=9	=9
1B	-le-	1r	.	2r	.
.	.	.	.	2dd	D'un
2A	-no,	2r	.	4cc#X	se-
.	.	.	.	4.ff	-cre-
2A	<D'un	2cc	D'un	.	.
.	.	.	.	8ff	-to
.	.	.	.	4ee	ve-
=10	=10	=10	=10	=10	=10
4G#X	se-	4b	se-	4.ee	-le-
4.A	-cre-	4.cc	-cre-	.	.
.	.	.	.	8dd	.
.	.	.	.	4cc	.
8A	-to	8cc	-to	.	.
4E	ve-	4ee	ve-	8bL	.
.	.	.	.	8aJ	.
1G	-le-	1dd	-le-	4b	.
.	.	.	.	2cc	.
.	.	.	.	4b	.
=11	=11	=11	=11	=11	=11
1C	-no,>	4ee	-no,	4cc	-no,
.	.	4gg	Tal	4ee	Tal
.	.	4ee	di-	4cc	di-
.	.	4.gg	-let-	4.ee	-let-
2r	.	.	.	.	.
.	.	8ff	-to	8dd	-to
.	.	4ee	n'a-	4cc	n'a-
4c	Tal	4cc	-vea,	4g	-vea,
4c	di-	4ee	<Tal	4gg	Tal
=12	=12	=12	=12	=12	=12
2c	-let-	4cc	di-	4ee	di-
.	.	4.ee	-let-	4.gg	-let-
4c	-to	.	.	.	.
.	.	8dd	-to	8ff	-to
4c	n'a-	4cc	n'a-	4ee	n'a-
2c	-vea,	1g	-vea,	1cc	-vea,
4C	<Tal	.	.	.	.
4C	di-	.	.	.	.
=13	=13	=13	=13	=13	=13
2C	-let-	4g	Tal	2r	.
.	.	4g	di-	.	.
4C	-to	2cc	-let-	4g	<Tal
4C	n'a-	.	.	4g	di-
1C	-vea>	4cc	-to	2gg	-let-
.	.	4cc	n'a-	.	.
.	.	[2cc	-vea>	4gg	-to
.	.	.	.	4gg	n'a-
=14	=14	=14	=14	=14	=14
2r	.	2cc]	.	1ee	-vea,>
2.c	Che,	2.ee	Che,	.	.
.	.	.	.	1r	.
4F	fin-	4ff	fin-	.	.
2B-X	-gen-	2dd	-gen-	.	.
=15	=15	=15	=15	=15	=15
4B-X	-do,	4dd	-do,	0r	.
2B-X	Che,	2dd	Che,	.	.
4E-X	fin-	4ee-X	fin-	.	.
2B-X	-gen-	2dd	-gen-	.	.
4B-X	-do	4dd	-do	.	.
4c	ch'an-	4cc	ch'an-	.	.
=16	=16	=16	=16	=16	=16
2G	-cor	2.b	-cor	0r	.
2G	non	.	.	.	.
.	.	4b	non	.	.
2G	mi	2b	mi	.	.
2C	pas-	2cc	pas-	.	.
=17	=17	=17	=17	=17	=17
1G	-sas-	1dd	-sas-	1r	.
1G	-se	1dd	-se	2r	.
.	.	.	.	[2b	Il
=18	=18	=18	=18	=18	=18
0r	.	0r	.	2b]	.
.	.	.	.	2cc	do-
.	.	.	.	1b	-lor,
=19	=19	=19	=19	=19	=19
0r	.	1r	.	2r	.
.	.	.	.	1cc	Il
.	.	2r	.	.	.
.	.	[2a	Il	2dd	do-
=20	=20	=20	=20	=20	=20
0r	.	2a]	.	1cc	-lor
.	.	2a	do-	.	.
.	.	1a	-lor	2dd	di
.	.	.	.	2dd	quel
=21	=21	=21	=21	=21	=21
*	*	*	*	*lig	*
0r	.	2b	di	1ee	mor-
.	.	2b	quel	.	.
.	.	2cc#X	mor-	1ff	.
*	*	*	*	*Xlig	*
.	.	[2dd	.	.	.
=22	=22	=22	=22	=22	=22
1r	.	2dd]	.	1ee	-so,
.	.	2cc#X	-so,	.	.
[1A	Il	1r	.	1r	.
=23	=23	=23	=23	=23	=23
2A]	.	0r	.	0r	.
2A	do-	.	.	.	.
1A	-lor,	.	.	.	.
=24	=24	=24	=24	=24	=24
2r	.	0r	.	0r	.
1B-X	Il	.	.	.	.
2B-X	do-	.	.	.	.
=25	=25	=25	=25	=25	=25
1B-X	-lor	0r	.	0r	.
2c	di	.	.	.	.
2c	quel	.	.	.	.
=26	=26	=26	=26	=26	=26
0d	mor-	0r	.	0r	.
=27	=27	=27	=27	=27	=27
0G	-so,	0r	.	2r	.
.	.	.	.	2g	Fei
.	.	.	.	2dd	sì
.	.	.	.	4b	ch'el-
.	.	.	.	8a	-la
.	.	.	.	8g	più
=28	=28	=28	=28	=28	=28
4r	.	1r	.	4a	vol-
4G	Fei	.	.	4g	-te,
2d	sì	.	.	4g	ch'el-
.	.	.	.	8f#X	-la
.	.	.	.	8e	più
2r	.	4r	.	4f#X	vol-
.	.	4g	Fei	4g	-te
4G	ch'el-	2dd	sì	2r	.
8F#X	-la	.	.	.	.
8E	più	.	.	.	.
=29	=29	=29	=29	=29	=29
4F#X	vol-	4dd	ch'el-	1r	.
4G	-te,	8b	-la	.	.
.	.	8cc	più	.	.
4B	<ch'el-	2dd	vol-	.	.
8A	-la	.	.	.	.
8G	più	.	.	.	.
4A	vol-	2dd	-te	2r	.
4G	-te>	.	.	.	.
2r	.	8r	.	8r	.
.	.	8b	Vi	8dd	Vi
.	.	8g	re-	8b	re-
.	.	8b	-pli-	8dd	-pli-
=30	=30	=30	=30	=30	=30
1r	.	4a	-cò	4cc	-cò
.	.	4g	l'in-	4b	l'in-
.	.	2f#X	-can-	2a	-can-
8r	.	2g	-to,	2g	-to,
8d	Vi	.	.	.	.
8B	re-	.	.	.	.
8d	-pli-	.	.	.	.
4G	-cò	8r	.	8r	.
.	.	8dd	<Vi	8b	<Vi
4B	l'in-	8b	re-	8g	re-
.	.	8dd	-pli-	8b	-pli-
=31	=31	=31	=31	=31	=31
2c	-can-	4cc	-cò	4a	-cò
.	.	4b	l'in-	4g	l'in-
2d	-to,	2a	-can-	2f#X	-can-
4r	.	2b	-to,>	1g	-to,>
4G	Fei	.	.	.	.
2C	sì	2r	.	.	.
=32	=32	=32	=32	=32	=32
1r	.	1r	.	1r	.
2r	.	2r	.	8r	.
.	.	.	.	8gg	Vi
.	.	.	.	8ee	re-
.	.	.	.	8gg	-pli-
8r	.	8r	.	4cc	-cò
8c	Vi	8ee	Vi	.	.
8A	re-	8cc	re-	4ee	l'in-
8c	-pli-	8ee	-pli-	.	.
=33	=33	=33	=33	=33	=33
4F	-cò	8dd	-cò	8ffL	-can-
.	.	8cc	l'in-	8ee	.
4A	l'in-	2cc	-can-	8ee	.
.	.	.	.	16dd	.
.	.	.	.	16ccJ	.
4G	-can-	.	.	2dd	.
4G	-to,	4b	.	.	.
8r	.	8cc	-to,	8cc	-to,
8C	<Vi	8ee	<Vi	8cc	<Vi
8C	re-	8ee	re-	8cc	re-
8C	-pli-	8ee	-pli-	8cc	-pli-
4F	-cò	4cc	-cò	4a	-cò
4D	l'in-	4ff	l'in-	4dd	l'in-
=34	=34	=34	=34	=34	=34
2A	-can-	2ee	-can-	2cc#X	-can-
8D	-to,	2dd	-to,	8dd	-to,
8D	Vi	.	.	8a	Vi
8D	re-	.	.	8a	re-
8D	-pli-	.	.	8a	-pli-
4.G	-cò	8r	.	4.b	-cò
.	.	8dd	Vi	.	.
.	.	8dd	re-	.	.
8G	l'in-	8dd	-pli-	8b	l'in-
4E	-can-	4ee	-cò	2b	-can-
4E	-to,>	4ee	l'in-	.	.
=35	=35	=35	=35	=35	=35
8r	.	2ee	-can-	8a	-to,>
8A	Vi	.	.	8cc#X	Vi
8A	re-	.	.	8cc#X	re-
8A	-pli-	.	.	8cc#X	-pli-
2D	-cò,	8dd	-to,>	2dd	-cò,
.	.	8ff#X	Vi	.	.
.	.	8ff#X	re-	.	.
.	.	8ff#X	-pli-	.	.
8r	.	2gg	-cò,	8r	.
8G	Vi	.	.	8b	Vi
8G	re-	.	.	8b	re-
8G	-pli-	.	.	8b	-pli-
4c	-cò	8r	.	4ccnXi	-cò
.	.	8ee	Vi	.	.
4c	l'in-	8cc	re-	4g	l'in-
.	.	8ee	-pli-	.	.
=36	=36	=36	=36	=36	=36
2F	-can-	4dd	-cò	2a	-can-
.	.	4cc	l'in-	.	.
2G	-to,	2b	-can-	2dd	.
2r	.	2cc	-to,	1ee	-to,
8r	.	8r	.	.	.
8c	<Vi	8cc	<Vi	.	.
8A	re-	8cc	re-	.	.
8c	-pli-	8cc	-pli-	.	.
=37	=37	=37	=37	=37	=37
2F	-cò	2cc	-cò	8r	.
.	.	.	.	8ff	<Vi
.	.	.	.	8cc	re-
.	.	.	.	8ff	-pli-
2c	l'in-	4cc	l'in-	4ee	-cò
.	.	2cc	-can-	4cc	l'in-
1G	-can-	.	.	1dd	-can-
.	.	8bL	.	.	.
.	.	8aJ	.	.	.
.	.	2b	.	.	.
=38	=38	=38	=38	=38	=38
0Cl	-to.>	0ccl	-to.>	0eel	-to.>
==	==	==	==	==	==
*-	*-	*-	*-	*-	*-
!!!system-decoration: [*]
!!!RDF**kern: i = editorial accidental
!!!RDF**kern: l = terminal long
!!!ENC: Emiliano Ricciardi
!!!END: 2018/05/21
!!!EED: Coluzzi, Seth
!!!EEV: 2018/07/13
!!!YEC: Copyright 2018 Emiliano Ricciardi, All Rights Reserved
!!!ONB: Translated from MusicXML on 2018/07/13 and edited by Craig Stuart Sapp
!!@@BEGIN:	VERSEDATA
!!@CATALOGNUM:	Tam1020502
!!@LAST_MODIFIED: 2020/07/12
!!@ACT:        I
!!@SCENE:      2
!!@VERSE:      502
!!@TITLE:      Ma mentre al cor scendeva
!!@MANUSRC:	A-Am, A-Au, A-Br, A-CM, A-F, A-Ub
!!@PRINTSRC:	A-1580D, A-1580M, A-1581B, A-1581B<sub>bis</sub>, A-1581M, A-1581M<sub>bis</sub>, A-1581O, A-1581V, A-1582B, A-1583M, A-1583V, A-1584A, A-1585C, A-1585V, A-1585V<sub>bis</sub>, A-1588B, A-1589M, A-1589V, A-1590Mb, A-1590Mv, A-1591M, A-1591W, A-1592B, A-1596B, A-1596M, A-1599Bf, A-1599Bp, A-1600R, A-1601Bf, A-1601Bp, A-1602B, A-1603Bf, A-1603Bv, A-1603Z, A-1605R, A-1606Z, A-1608D, A-1608DP, A-1609Bf, A-1609Bv, A-1609Z, A-1611D, A-1614GT, A-1617D, A-1618B, A-1619D, A-1619I, A-1620V, A-1622D, A-1623A, A-1624M, A-1624S, A-1624T, A-1625U, A-1628U, A-1632D, A-1634R
!!@@BEGIN:	VERSES
!!@ABOUTIT:	
!!@ABOUTEN:	
!!@EDITOR:	Solerti, Angelo
!!@EDITION_TITLE: Opere minori in versi di Torquato Tasso. Edizione critica sugli autografi e sulle antiche stampe.
!!@EDITION_LOC:	Bologna
!!@EDITION_PUB:	Zanichelli
!!@EDITION_DATE:  1895
!!@EDITION_VOL:	3
!!@EDITION_PAGE:
!!@TRANSLATOR:	Emiliano Ricciardi and Amyrose McCue Gill
!!@VERSE:	
!!	Ma mentre al cuor scendea
!!	Quella dolcezza mista
!!	D'un secreto veleno,
!!	Tal diletto n'havea
!!	Che, fingendo ch'anchor non mi passasse
!!	Il dolor di quel morso,
!!	Fei sì ch'ella più volte
!!	Vi replicò l'incanto.
!!@TVERSE:
!!	But while to my heart descended
!!	That sweetness, mixed
!!	With a secret poison,
!!	Such pleasure was had
!!	That, pretending that still had not passed from me
!!	The pain of that sting,
!!	I made it such that she, more times,
!!	Repeated there the enchantment.
!!@@END:		VERSES
!!@NEW_CRIT_ED:
!!@ATTRIBUTION_ABOUT:	
!!@DATING:	1573
!!@DEDICATEE:	
!!@COMMENTARY:
!!@@END:		VERSEDATA
!!@@BEGIN: SETTING
!!@CATALOGNUM:	Tam1020502a
!!@ACT:		I
!!@SCENE:		2
!!@VERSE:		502
!!@TITLE:		Ma mentre al cor scendeva
!!@COMPOSER:	Marotta, Erasmo
!!@PRINCEPSTITLE:	Aminta musicale. Il primo libro de madrigali a cinque voci
!!@PRINCEPSLOC:	Venice
!!@NORMLOC:	Venice
!!@NORMPUB:	Angelo Gardano
!!@NORMPUBSHORT:	Gardano
!!@PRINCEPSPUB:	Angelo Gardano
!!@PRINCEPSYEAR:	1600
!!@PRINCEPSRISM:	M 714
!!@OVOICES:	5
!!@EXTANTVOICES:	3
!!@OMENSURATION:	C
!!@OCLEFS:	G2,G2,C4
!!@OTIME:		
!!@OKEYSIG:	-
!!@FINAL:		C
!!@TIMPEDITOR:	Coluzzi, Seth
!!@PARTS:		8 of 8
!!@REPRINTS:	
!!@@END: SETTING
